localPackages/DesignSystem/Sources/DesignSystem/Resources/Assets.xcassets/IconSet/ic-arrows-to-center.imageset/ic-arrows-to-center.svg

<svg width="24" height="24" viewBox="0 0 24 24" fill="none" xmlns="http://www.w3.org/2000/svg">
<g id="ic-arrows-to-center">
<path id="Icon" fill-rule="evenodd" clip-rule="evenodd" d="M13.5 1.5C13.9142 1.5 14.25 1.83579 14.25 2.25V8.68936L20.4697 2.46967C20.7626 2.17678 21.2375 2.17678 21.5304 2.46967C21.8232 2.76256 21.8232 3.23744 21.5304 3.53033L15.3107 9.75H21.75C22.1642 9.75 22.5 10.0858 22.5 10.5C22.5 10.9142 22.1642 11.25 21.75 11.25H13.5C13.0858 11.25 12.75 10.9142 12.75 10.5V2.25C12.75 1.83579 13.0858 1.5 13.5 1.5ZM1.5 13.5C1.5 13.0858 1.83579 12.75 2.25 12.75L10.5 12.75C10.9142 12.75 11.25 13.0858 11.25 13.5V21.75C11.25 22.1642 10.9142 22.5 10.5 22.5C10.0858 22.5 9.75 22.1642 9.75 21.75V15.3106L3.53031 21.5303C3.23741 21.8232 2.76254 21.8232 2.46965 21.5303C2.17675 21.2374 2.17675 20.7626 2.46965 20.4697L8.68932 14.25H2.25C1.83579 14.25 1.5 13.9142 1.5 13.5Z" fill="#0F0F0F"/>
</g>
</svg>

<svg xmlns="http://www.w3.org/2000/svg" width="24" height="24" viewBox="0 0 24 24">
  <g class="ic-arrows-to-center">
    <path fill-rule="evenodd" d="M13.5 1.5a.75.75 0 0 1 .75.75v6.44l6.22-6.22a.75.75 0 0 1 1.06 1.06l-6.22 6.22h6.44a.75.75 0 0 1 0 1.5H13.5a.75.75 0 0 1-.75-.75V2.25a.75.75 0 0 1 .75-.75Zm-12 12a.75.75 0 0 1 .75-.75h8.25a.75.75 0 0 1 .75.75v8.25a.75.75 0 0 1-1.5 0v-6.44l-6.22 6.22a.75.75 0 0 1-1.06-1.06l6.22-6.22H2.25a.75.75 0 0 1-.75-.75Z" class="Icon"/>
  </g>
</svg>
